X: 1
T: Captain O'Kane
R: jig
M: 6/8
L: 1/8
K: Gmin
G/2F/2 | DGA B2 A/2G/2 | A/2B/2c/2B/2A/2G/2 FGA | BdB d/2c/2B/2A/2G/2F/2 | DGG G2 G/2F/2 |
DGA B2 A/2G/2 | A/2B/c/2B/2A/2G/2 FGA | f3/2e/2d d/2c/2B/2A/2G/2F/2 | DGG G2 G/2A/2|
Bdd d2 c/2B/2 | Acc c2 f/2e/2 | dg3/2g/2 gab | dg^f g2 g/2a/2 |
bag fed | cA f F2 G/2A/2 | BdB d/2c/2B/2A/2G/2F/2 | DGF G2 ||


Tune 858	Setting 14025

